_icons/SVG/032-nidoran-m-shiny.svg

<svg xmlns="http://www.w3.org/2000/svg" width="32" height="32"><path fill="#8EC0E0" d="M25.822 28.188c.729-.801 1.164-1.862 1.164-3.188 0-3.314-2.686-6-6-6s0 11 0 11h5.412c.336 0 .589-.329.48-.646a2.007 2.007 0 00-1.056-1.166z"/><path fill="#9FC9E4" d="M11 19a6 6 0 00-6 6c0 1.326.436 2.387 1.164 3.188a2.009 2.009 0 00-1.057 1.166c-.109.317.145.646.481.646H11s3.314-11 0-11zm9.986 2s5.823.972 4.08 10.582a.513.513 0 01-.498.418h-3.164a.498.498 0 01-.487-.388c-.211-.926-1.022-3.214-3.931-3.612l4-7z"/><path fill="#B0D3EA" d="M10.977 21s-5.823.972-4.08 10.582a.513.513 0 00.498.418h3.164c.235 0 .434-.16.487-.388.211-.926 1.022-3.214 3.931-3.612l-4-7z"/><path fill="#C1DDEE" d="M15.492 6.212l-1.377 8.949a8.248 8.248 0 00-2.111.661C11.903 13.22 10.883 6.731 3.779.656a.502.502 0 00-.825.375c-.038 3.317.357 13.684 6.602 16.762-1.016 1.329-1.57 3.09-1.57 5.207 0 3.312 6.188 7 8 7V5.788a.486.486 0 00-.494.424z"/><path fill="#9E6E43" d="M9.967 16.892C5.091 14.464 4.131 6.864 3.979 2.758c-.009-.225.263-.343.425-.187 6.217 5.99 6.641 11.999 6.614 13.795l-1.051.526z"/><path fill="#B0D3EA" d="M28.221.656c-7.115 6.085-8.127 12.584-8.226 15.178a8.191 8.191 0 00-2.138-.672l-1.377-8.95a.485.485 0 00-.494-.424V30c1.812 0 8-3.688 8-7 0-2.112-.552-3.869-1.562-5.197 6.264-3.066 6.66-13.451 6.622-16.773a.502.502 0 00-.825-.374z"/><path fill="#96643B" d="M20.982 16.366c-.027-1.791.394-7.801 6.612-13.792.162-.157.434-.039.425.187-.156 4.107-1.12 11.706-5.986 14.131l-1.051-.526z"/><path fill="#F6B392" d="M15.986 26l-1.465.488a1 1 0 00-.391 1.656l.15.15a2.41 2.41 0 001.704.706h.002v-3z"/><path fill="#F4A984" d="M15.988 29a2.41 2.41 0 001.704-.706l.15-.15a1 1 0 00-.391-1.656L15.986 26v3h.002z"/><path fill="#FFF" d="M15.986 26l-1.5.5.378 1.156a.501.501 0 00.476.344h.646v-2z"/><path fill="#F7F7F7" d="M15.986 26l1.5.5-.378 1.156a.5.5 0 01-.475.344h-.646v-2z"/><path fill="#96643B" d="M10.012 16.869l1.006-.503c.027-1.796-.397-7.805-6.613-13.794-.162-.156-.434-.038-.425.187.018.454.046.951.086 1.476 5.135 5.302 5.88 10.49 5.946 12.634z"/><path fill="#8D5B36" d="M27.931 4.238c.041-.524.069-1.022.087-1.477.009-.226-.263-.344-.426-.187-6.217 5.991-6.638 12.001-6.611 13.791l1.006.503c.067-2.14.81-7.327 5.944-12.63z"/><path fill="#FFF" d="M12.716 24.46l-2.036-4.071a.25.25 0 00-.44-.014c-.343.602-.867 1.873-.339 3.402a.486.486 0 00.309.299l2.033.678c.383.126.573-.095.473-.294z"/><path fill="#E85160" d="M11.208 21.443c-.301.548-.698 1.564-.44 2.817l1.646.549a.25.25 0 00.303-.349l-1.509-3.017z"/><path fill="#F7F7F7" d="M19.256 24.46l2.036-4.071a.25.25 0 01.44-.014c.343.602.867 1.873.339 3.402a.486.486 0 01-.309.299l-2.033.678c-.383.126-.573-.095-.473-.294z"/><path fill="#D84459" d="M20.764 21.443c.301.548.698 1.564.44 2.817l-1.646.549a.25.25 0 01-.303-.349l1.509-3.017z"/><path fill="#5091AF" d="M15.986 20.5l-1.379-.345a.5.5 0 00-.621.485v.124a2 2 0 001.106 1.789l.671.335c.07.035.147.053.224.053V20.5z"/><path fill="#468DAC" d="M17.365 20.155l-1.379.345v2.441a.505.505 0 00.224-.053l.671-.335a2 2 0 001.106-1.789v-.124a.501.501 0 00-.622-.485z"/></svg>

<?xml version="1.0" encoding="utf-8"?>
<!-- Generator: Adobe Illustrator 23.0.6, SVG Export Plug-In . SVG Version: 6.00 Build 0)  -->
<svg version="1.1" xmlns="http://www.w3.org/2000/svg" xmlns:xlink="http://www.w3.org/1999/xlink" x="0px" y="0px" width="32px"
	 height="32px" viewBox="0 0 32 32" enable-background="new 0 0 32 32" xml:space="preserve">
<g id="icons">
	<g>
		<path fill="#8EC0E0" d="M25.822,28.188c0.729-0.801,1.164-1.862,1.164-3.188c0-3.314-2.686-6-6-6s0,11,0,11h5.412
			c0.336,0,0.589-0.329,0.48-0.646C26.701,28.837,26.315,28.416,25.822,28.188z"/>
		<path fill="#9FC9E4" d="M11,19c-3.314,0-6,2.686-6,6c0,1.326,0.436,2.387,1.164,3.188c-0.493,0.228-0.879,0.648-1.057,1.166
			C4.998,29.671,5.252,30,5.588,30H11C11,30,14.314,19,11,19z"/>
		<path fill="#9FC9E4" d="M20.986,21c0,0,5.823,0.972,4.08,10.582C25.022,31.82,24.81,32,24.568,32h-3.164
			c-0.235,0-0.434-0.16-0.487-0.388c-0.211-0.926-1.022-3.214-3.931-3.612L20.986,21z"/>
		<path fill="#B0D3EA" d="M10.977,21c0,0-5.823,0.972-4.08,10.582C6.941,31.82,7.153,32,7.395,32h3.164
			c0.235,0,0.434-0.16,0.487-0.388c0.211-0.926,1.022-3.214,3.931-3.612L10.977,21z"/>
		<path fill="#C1DDEE" d="M15.492,6.212l-1.377,8.949c-0.768,0.136-1.474,0.358-2.111,0.661c-0.101-2.602-1.121-9.091-8.225-15.166
			C3.46,0.383,2.959,0.61,2.954,1.031C2.916,4.348,3.311,14.715,9.556,17.793C8.54,19.122,7.986,20.883,7.986,23
			c0,3.312,6.188,7,8,7V5.788C15.761,5.788,15.535,5.93,15.492,6.212z"/>
		<path fill="#9E6E43" d="M9.967,16.892C5.091,14.464,4.131,6.864,3.979,2.758C3.97,2.533,4.242,2.415,4.404,2.571
			c6.217,5.99,6.641,11.999,6.614,13.795L9.967,16.892z"/>
		<path fill="#B0D3EA" d="M28.221,0.656c-7.115,6.085-8.127,12.584-8.226,15.178c-0.644-0.31-1.36-0.535-2.138-0.672L16.48,6.212
			c-0.043-0.283-0.269-0.424-0.494-0.424V30c1.812,0,8-3.688,8-7c0-2.112-0.552-3.869-1.562-5.197
			c6.264-3.066,6.66-13.451,6.622-16.773C29.041,0.61,28.54,0.383,28.221,0.656z"/>
		<path fill="#96643B" d="M20.982,16.366c-0.027-1.791,0.394-7.801,6.612-13.792c0.162-0.157,0.434-0.039,0.425,0.187
			c-0.156,4.107-1.12,11.706-5.986,14.131L20.982,16.366z"/>
		<path fill="#F6B392" d="M15.986,26l-1.465,0.488c-0.705,0.235-0.917,1.13-0.391,1.656l0.15,0.15
			C14.732,28.746,15.345,29,15.984,29h0.002V26z"/>
		<path fill="#F4A984" d="M15.988,29c0.639,0,1.252-0.254,1.704-0.706l0.15-0.15c0.526-0.526,0.314-1.421-0.391-1.656L15.986,26v3
			H15.988z"/>
		<path fill="#FFFFFF" d="M15.986,26l-1.5,0.5l0.378,1.156C14.932,27.861,15.123,28,15.34,28h0.646V26z"/>
		<path fill="#F7F7F7" d="M15.986,26l1.5,0.5l-0.378,1.156C17.041,27.861,16.849,28,16.633,28h-0.646V26z"/>
		<path fill="#96643B" d="M10.012,16.869l1.006-0.503c0.027-1.796-0.397-7.805-6.613-13.794C4.243,2.416,3.971,2.534,3.98,2.759
			c0.018,0.454,0.046,0.951,0.086,1.476C9.201,9.537,9.946,14.725,10.012,16.869z"/>
		<path fill="#8D5B36" d="M27.931,4.238C27.972,3.714,28,3.216,28.018,2.761c0.009-0.226-0.263-0.344-0.426-0.187
			c-6.217,5.991-6.638,12.001-6.611,13.791l1.006,0.503C22.054,14.728,22.797,9.541,27.931,4.238z"/>
		<path fill="#FFFFFF" d="M12.716,24.46l-2.036-4.071c-0.089-0.178-0.341-0.188-0.44-0.014c-0.343,0.602-0.867,1.873-0.339,3.402
			c0.049,0.143,0.166,0.251,0.309,0.299c0.571,0.19,2.033,0.678,2.033,0.678C12.626,24.88,12.816,24.659,12.716,24.46z"/>
		<path fill="#E85160" d="M11.208,21.443c-0.301,0.548-0.698,1.564-0.44,2.817l1.646,0.549c0.211,0.07,0.402-0.15,0.303-0.349
			L11.208,21.443z"/>
		<path fill="#F7F7F7" d="M19.256,24.46l2.036-4.071c0.089-0.178,0.341-0.188,0.44-0.014c0.343,0.602,0.867,1.873,0.339,3.402
			c-0.049,0.143-0.166,0.251-0.309,0.299c-0.571,0.19-2.033,0.678-2.033,0.678C19.346,24.88,19.156,24.659,19.256,24.46z"/>
		<path fill="#D84459" d="M20.764,21.443c0.301,0.548,0.698,1.564,0.44,2.817l-1.646,0.549c-0.211,0.07-0.402-0.15-0.303-0.349
			L20.764,21.443z"/>
		<path fill="#5091AF" d="M15.986,20.5l-1.379-0.345c-0.316-0.079-0.621,0.16-0.621,0.485v0.124c0,0.758,0.428,1.45,1.106,1.789
			l0.671,0.335c0.07,0.035,0.147,0.053,0.224,0.053V20.5z"/>
		<path fill="#468DAC" d="M17.365,20.155L15.986,20.5l0,0v2.441c0.077,0,0.153-0.018,0.224-0.053l0.671-0.335
			c0.678-0.339,1.106-1.031,1.106-1.789V20.64C17.986,20.315,17.68,20.076,17.365,20.155z"/>
	</g>
</g>
<g id="labels">
</g>
</svg>
